X:24
T:Polska efter Karl Andersson (SvL Småland 24)
R:Polska
R:Slängpolska
B:Svenska Låtar Småland
O:Loftahammar, Småland
S:Efter Karl Andersson
Z:Till abc Jonas Brunskog
M:3/4
L:1/16
K:D
AFAc BGBd cdef|gfge dcBA G2FG|AFAc BGBd cdef|gfge e2d2 d4:|
|:f4 f2df a2f2|g4 g2eg b2g2|a2af gfgf g2a2|bgec d8:|

